src/16/panel/manjaro-settings-manager-panel.svg

<svg xmlns="http://www.w3.org/2000/svg" width="16" height="16"><defs><style id="current-color-scheme" type="text/css">.ColorScheme-Text{color:#dfdfdf;}.ColorScheme-Highlight{color:#5294e2;}</style></defs><defs><style id="current-color-scheme" type="text/css"></style></defs><path d="M2 1c-.554 0-1 .446-1 1v12c0 .554.446 1 1 1h3V5h5V1zm9 0v14h3c.554 0 1-.446 1-1V2c0-.554-.446-1-1-1zM6 6v9h4V6z" fill="currentColor" class="ColorScheme-Text"/></svg>

<svg xmlns="http://www.w3.org/2000/svg" width="16" height="16" version="1.1">
 <defs>
  <style id="current-color-scheme" type="text/css">
   .ColorScheme-Text { color:#dfdfdf; } .ColorScheme-Highlight { color:#4285f4; }
  </style>
 </defs>
 <path style="fill:currentColor" class="ColorScheme-Text" d="M 2,1 C 1.446,1 1,1.446 1,2 V 14 C 1,14.554 1.446,15 2,15 H 5 V 5 H 10 V 1 Z M 11,1 V 15 H 14 C 14.554,15 15,14.554 15,14 V 2 C 15,1.446 14.554,1 14,1 Z M 6,6 V 15 H 10 V 6 Z"/>
</svg>
